src/distro-icons/popos.svg

<svg width="512" height="512" fill="none" xmlns="http://www.w3.org/2000/svg">
<circle cx="256" cy="256" r="256" fill="#fff"/>
<g clip-path="url(#a)">
<path d="M400.975 234.085c-.672 2.86-2.124 5.393-4.603 6.986-3.894 2.497-8.639 1.773-12.002-1.267-3.152-2.823-4.214-7.601-3.222-11.727 1.026-4.307 4.284-8.108 8.462-9.302 9.312-2.643 13.171 7.709 11.365 15.31Zm-5.7-29.39c-5.771-2.353-3.789-33.3 1.487-70.87 1.487-10.497 4.036-15.456 6.904-17.989 4.107-3.584 11.578-3.728 16.641-2.968 5.807.868 11.366 3.619 15.579 7.782 3.718 3.692 4.143 7.456 2.868 12.342-2.089 7.782-5.665 15.238-9.099 22.514-.815 1.773-7.931 15.563-8.887 17.265-17.173 30.91-20.607 33.914-25.493 31.924Z" fill="#6CC7D2"/>
<path d="M278.787 190.76c3.399 14.84 3.045 31.127.141 42.855-2.726 11.075-10.126 20.993-21.881 24.323-10.303 2.932-22.306.796-29.671-6.443-12.109-11.872-19.19-39.742-16.039-59.975 2.549-16.252 11.118-37.064 29.919-37.969a24.198 24.198 0 0 1 3.611.072c19.155 1.774 29.6 18.279 33.92 37.137Zm-34.628 33.77c1.062.181 2.124.181 3.187-.145 3.576-1.05 5.629-4.85 6.585-8.542 1.452-5.61 1.239-11.655-.637-17.157-.956-2.787-2.372-5.501-4.532-7.528-7.613-7.131-15.225.289-16.535 8.723-1.027 6.587.46 14.224 4.496 19.545 1.877 2.461 4.568 4.597 7.436 5.104Z" fill="#BBB5B3"/>
<path d="M320.248 222.213c-.035 27.4 2.656 48.357-9.135 50.854-9.56 1.991-9.241-6.587-9.984-13.79-2.833-27.906-5.418-74.272-6.515-102.324.779-12.053 8.674-19.436 16.889-21.246 12.675-2.787 26.201-1.991 37.425 5.103 22.2 14.044 23.97 39.815 10.515 60.844-7.364 11.474-29.635 19.799-39.195 19.075v1.484Zm2.833-61.423c-1.381.217-3.647.869-4.284 2.244-1.523 3.221-1.417 23.672 1.239 32.25.425 1.412 1.381 2.751 2.761 3.258 5.028 1.882 9.56-4.416 11.614-8.217 2.868-5.284 3.788-11.51 1.983-17.301-1.7-5.393-6.975-13.211-13.313-12.234Z" fill="#99918D"/>
<path d="M193.28 174.399c-8.321 17.989-22.13 32.286-41.249 39.344 5.488 14.66 11.082 29.138 16.535 43.76 3.045 7.891 5.948 16.542 3.293 24.324-2.762 7.962-13.526 10.17-21.351 1.701-15.048-16.361-65.927-120.023-69.68-127.805-3.187-6.696-7.967-13.863-7.825-21.609.248-11.655 17.88-23.454 26.343-29.499 11.825-8.433 25.492-14.188 40.115-14.224 11.401 0 21.138 3.185 29.777 8.831 13.243 8.687 22.448 22.55 25.847 38.222 2.975 13.79 2.337 27.907-1.805 36.955Zm-38.771-19.69c-2.974-11.039-9.701-21.21-18.163-28.341-1.842-1.556-3.824-3.004-6.126-3.8-15.862-5.321-8.993 21.789-6.408 28.63 3.576 9.592 8.993 21.717 16.251 28.956 1.594 1.593 3.47 3.005 5.63 3.439 3.293.688 6.338-1.665 8.002-4.416 1.381-2.28 1.912-4.995 2.231-7.637.601-5.61.07-11.329-1.417-16.831Z" fill="#48B9C7"/>
<path d="M382.966 312.184c-.071 15.89-9.56 31.779-30.485 31.779-20.926 0-30.663-15.636-30.663-31.598 0-19.907 13.561-32.214 31.087-32.214 20.324.181 30.238 15.6 30.061 32.033Zm-30.061-22.007c-13.135 0-20.5 9.339-20.571 22.079 0 11.076 6.055 21.464 20.324 21.464 14.268 0 19.721-11.257 19.721-21.572.177-10.714-5.382-21.717-19.474-21.971Zm38.842 45.642c0 2.353.07-11.184 0-13.247h9.63l.673 8.289c3.151 1.846 8.037 3.221 12.038 3.221 7.436 0 15.19-1.918 15.19-9.338-.248-6.733-8.887-8.108-15.863-8.832-11.861-1.231-21.421-4.199-21.421-17.808 0-12.125 13.42-18.17 23.404-18.17 8.038-.181 13.738 1.122 20.996 7.058 0 4.886-.07 7.782-.07 12.668h-9.312l-.602-8.035c-3.753-1.846-7.613-2.353-10.587-2.28-6.408.072-13.242 3.149-13.242 8.65 0 5.394 4.426 6.878 12.286 8.036 12.817 1.737 25.174 4.705 25.174 18.676-.071 15.275-14.092 19.292-26.13 19.292-9.17.037-14.906-1.701-22.164-8.18Z" fill="#554741"/>
<path d="M308.824 338.751c0 2.787-2.195 5.031-4.921 5.031h-56.899c-2.726 0-4.921-2.244-4.921-5.031v-.434c0-2.787 2.195-5.031 4.921-5.031h56.899c2.726 0 4.921 2.244 4.921 5.031v.434Z" fill="#FAA41A"/>
</g>
<defs>
<clipPath id="a">
<path fill="#fff" transform="translate(73 90)" d="M0 0h367v254H0z"/>
</clipPath>
</defs>
</svg>

<svg width="512" height="512" viewBox="0 0 512 512" fill="none" xmlns="http://www.w3.org/2000/svg">
<circle cx="256" cy="256" r="256" fill="white"/>
<g clip-path="url(#clip0_2:411)">
<path d="M400.975 234.085C400.303 236.945 398.851 239.478 396.372 241.071C392.478 243.568 387.733 242.844 384.37 239.804C381.218 236.981 380.156 232.203 381.148 228.077C382.174 223.77 385.432 219.969 389.61 218.775C398.922 216.132 402.781 226.484 400.975 234.085V234.085ZM395.275 204.695C389.504 202.342 391.486 171.395 396.762 133.825C398.249 123.328 400.798 118.369 403.666 115.836C407.773 112.252 415.244 112.108 420.307 112.868C426.114 113.736 431.673 116.487 435.886 120.65C439.604 124.342 440.029 128.106 438.754 132.992C436.665 140.774 433.089 148.23 429.655 155.506C428.84 157.279 421.724 171.069 420.768 172.771C403.595 203.681 400.161 206.685 395.275 204.695Z" fill="#6CC7D2"/>
<path d="M278.787 190.76C282.186 205.6 281.832 221.887 278.928 233.615C276.202 244.69 268.802 254.608 257.047 257.938C246.744 260.87 234.741 258.734 227.376 251.495C215.267 239.623 208.186 211.753 211.337 191.52C213.886 175.268 222.455 154.456 241.256 153.551C242.459 153.479 243.663 153.515 244.867 153.623C264.022 155.397 274.467 171.902 278.787 190.76ZM244.159 224.53C245.221 224.711 246.283 224.711 247.346 224.385C250.922 223.335 252.975 219.535 253.931 215.843C255.383 210.233 255.17 204.188 253.294 198.686C252.338 195.899 250.922 193.185 248.762 191.158C241.149 184.027 233.537 191.447 232.227 199.881C231.2 206.468 232.687 214.105 236.723 219.426C238.6 221.887 241.291 224.023 244.159 224.53Z" fill="#BBB5B3"/>
<path d="M320.248 222.213C320.213 249.613 322.904 270.57 311.113 273.067C301.553 275.058 301.872 266.48 301.129 259.277C298.296 231.371 295.711 185.005 294.614 156.953C295.393 144.9 303.288 137.517 311.503 135.707C324.178 132.92 337.704 133.716 348.928 140.81C371.128 154.854 372.898 180.625 359.443 201.654C352.079 213.128 329.808 221.453 320.248 220.729V222.213ZM323.081 160.79C321.7 161.007 319.434 161.659 318.797 163.034C317.274 166.255 317.38 186.706 320.036 195.284C320.461 196.696 321.417 198.035 322.797 198.542C327.825 200.424 332.357 194.126 334.411 190.325C337.279 185.041 338.199 178.815 336.394 173.024C334.694 167.631 329.419 159.813 323.081 160.79Z" fill="#99918D"/>
<path d="M193.28 174.399C184.959 192.388 171.15 206.685 152.031 213.743C157.519 228.403 163.113 242.881 168.566 257.503C171.611 265.394 174.514 274.045 171.859 281.827C169.097 289.789 158.333 291.997 150.508 283.528C135.46 267.167 84.5811 163.505 80.828 155.723C77.6414 149.027 72.8614 141.86 73.0031 134.114C73.2509 122.459 90.8835 110.66 99.3457 104.615C111.171 96.1817 124.838 90.4267 139.461 90.3905C150.862 90.3905 160.599 93.5756 169.238 99.2221C182.481 107.909 191.686 121.772 195.085 137.444C198.06 151.234 197.422 165.351 193.28 174.399V174.399ZM154.509 154.709C151.535 143.67 144.808 133.499 136.346 126.368C134.504 124.812 132.522 123.364 130.22 122.568C114.358 117.247 121.227 144.357 123.812 151.198C127.388 160.79 132.805 172.915 140.063 180.154C141.657 181.747 143.533 183.159 145.693 183.593C148.986 184.281 152.031 181.928 153.695 179.177C155.076 176.897 155.607 174.182 155.926 171.54C156.527 165.93 155.996 160.211 154.509 154.709V154.709Z" fill="#48B9C7"/>
<path d="M382.966 312.184C382.895 328.074 373.406 343.963 352.481 343.963C331.555 343.963 321.818 328.327 321.818 312.365C321.818 292.458 335.379 280.151 352.905 280.151C373.229 280.332 383.143 295.751 382.966 312.184ZM352.905 290.177C339.77 290.177 332.405 299.516 332.334 312.256C332.334 323.332 338.389 333.72 352.658 333.72C366.926 333.72 372.379 322.463 372.379 312.148C372.556 301.434 366.997 290.431 352.905 290.177ZM391.747 335.819C391.747 338.172 391.817 324.635 391.747 322.572H401.377L402.05 330.861C405.201 332.707 410.087 334.082 414.088 334.082C421.524 334.082 429.278 332.164 429.278 324.744C429.03 318.011 420.391 316.636 413.415 315.912C401.554 314.681 391.994 311.713 391.994 298.104C391.994 285.979 405.414 279.934 415.398 279.934C423.436 279.753 429.136 281.056 436.394 286.992C436.394 291.878 436.324 294.774 436.324 299.66H427.012L426.41 291.625C422.657 289.779 418.797 289.272 415.823 289.345C409.415 289.417 402.581 292.494 402.581 297.995C402.581 303.389 407.007 304.873 414.867 306.031C427.684 307.768 440.041 310.736 440.041 324.707C439.97 339.982 425.949 343.999 413.911 343.999C404.741 344.036 399.005 342.298 391.747 335.819V335.819Z" fill="#554741"/>
<path d="M308.824 338.751C308.824 341.538 306.629 343.782 303.903 343.782H247.004C244.278 343.782 242.083 341.538 242.083 338.751V338.317C242.083 335.53 244.278 333.286 247.004 333.286H303.903C306.629 333.286 308.824 335.53 308.824 338.317V338.751Z" fill="#FAA41A"/>
</g>
<circle cx="434.5" cy="434.5" r="77.5" fill="white"/>
<path d="M425.077 383.035L389.695 383.035C388.859 383.035 388.182 383.713 388.182 384.549C388.182 385.385 388.859 386.063 389.695 386.063L422.466 386.063C422.7 385.715 422.942 385.369 423.192 385.024L424.3 383.494L425.077 383.035Z" fill="#E91F63"/>
<path d="M414.021 402.627C413.758 403.326 413.481 404.062 413.201 404.832L375.77 404.832C374.934 404.832 374.256 404.154 374.256 403.318C374.256 402.482 374.934 401.805 375.77 401.805L414.365 401.805L414.256 402.001L414.021 402.627Z" fill="#E91F63" fill-opacity="0.7"/>
<path d="M409.981 420.271L369.715 420.271C368.879 420.271 368.201 420.949 368.201 421.785C368.201 422.621 368.879 423.299 369.715 423.299L409.566 423.299C409.574 423.255 409.583 423.211 409.591 423.168L409.6 423.123C409.788 422.168 409.911 421.53 409.988 421.029C409.983 420.775 409.98 420.523 409.981 420.271Z" fill="#E91F63" fill-opacity="0.3"/>
<path d="M411.238 439.041L368.201 439.041C367.365 439.041 366.688 439.719 366.688 440.555C366.688 441.391 367.365 442.068 368.201 442.068L413.542 442.068C413.244 441.681 412.941 441.299 412.632 440.922C412.101 440.306 411.639 439.677 411.238 439.041Z" fill="#E91F63"/>
<path d="M422.95 457.508L372.742 457.508C371.906 457.508 371.229 458.186 371.229 459.021C371.229 459.857 371.906 460.535 372.742 460.535L424.569 460.535C424.27 459.958 423.969 459.383 423.665 458.809C423.424 458.372 423.186 457.938 422.95 457.508Z" fill="#E91F63" fill-opacity="0.6"/>
<path d="M431.847 476.277L384.852 476.277C384.016 476.277 383.338 476.955 383.338 477.791C383.338 478.627 384.016 479.305 384.852 479.305L433.073 479.305C432.672 478.292 432.263 477.283 431.847 476.277Z" fill="#E91F63"/>
<path d="M448.208 374.214C447.614 376.864 443.434 373.631 442.641 376.63C437.96 373.333 442.354 380.198 441.734 380.632L441.697 380.625L441.325 380.512C441.094 380.375 440.764 380.15 440.296 379.717C436.146 381.868 434.892 387.786 430.546 390.353C427.094 395.117 425.379 400.679 422.521 405.826C420.618 410.883 418.819 415.96 419.089 421.445C418.641 425.778 416.273 431.325 419.566 435.056C424.389 440.907 427.989 447.831 431.655 454.491C437.386 465.283 442.074 476.628 445.996 488.138C446.898 485.638 446.326 493.584 447.95 494.447C448.115 490.45 448.554 484.132 449.121 479.267C449.667 466.363 445.729 453.84 445.85 440.978C445.881 440.441 445.903 439.887 445.935 439.34L446.242 437.784L446.052 437.746C446.498 431.468 447.533 424.774 452.918 420.909C458.369 417.22 465.37 417.399 471.458 415.288C472.815 414.809 474.207 414.478 475.59 414.321C475.601 414.32 475.617 414.33 475.628 414.329C479.652 413.905 483.694 414.739 487.508 416.156C487.565 416.177 487.634 416.21 487.69 416.231C488.037 416.362 488.413 416.499 488.755 416.638C491.586 417.462 497.164 419.735 498.603 417.946C495.295 413.77 489.507 412.883 484.894 410.585C484.155 410.294 483.237 409.955 482.306 409.681L477.761 407.68L476.642 407.144L476.635 407.182L460.262 400.521C460.04 400.222 459.796 399.912 459.56 399.673L475.693 404.985L475.708 404.909C476.266 405.154 476.824 405.374 477.399 405.558L477.392 405.596L488.664 410.065C490.534 411.217 492.576 412.2 494.568 412.731C497.805 413.873 501.069 419.684 502.103 420.14C502.599 414.793 497.834 411.417 493.794 409.029C489.21 405.562 481.615 404.167 482.107 397.177C481.987 396.66 481.87 396.144 481.702 395.632L480.249 392.617L480.333 392.594C478.261 388.877 474.922 385.819 471.059 384.136C467.332 381.961 463.103 379.701 458.942 378.313C456.674 382.262 456.563 374.358 452.666 375.932C449.567 375.694 449.823 376.576 447.951 374.214L448.208 374.214ZM467.532 390.906C468.634 391.093 469.845 391.541 471.024 392.225C474.151 394.046 475.857 396.929 474.846 398.663C473.835 400.396 470.466 400.314 467.34 398.485C464.214 396.657 462.497 393.83 463.51 392.084C464.142 390.997 465.698 390.595 467.532 390.906Z" fill="#E91F63"/>
<path d="M466.591 399.038C469.725 401.043 473.309 401.039 474.595 399.029C475.881 397.019 474.383 393.764 471.248 391.759C468.114 389.754 464.531 389.758 463.245 391.768C461.959 393.778 463.457 397.033 466.591 399.038Z" fill="black"/>
<path fill-rule="evenodd" clip-rule="evenodd" d="M471.284 399.026C472.422 399.025 473.049 398.636 473.32 398.214C473.59 397.791 473.68 397.058 473.204 396.025C472.737 395.01 471.793 393.904 470.433 393.034C469.073 392.164 467.673 391.77 466.555 391.771C465.418 391.773 464.79 392.161 464.52 392.584C464.25 393.006 464.16 393.739 464.636 394.772C465.103 395.787 466.047 396.893 467.407 397.763C468.767 398.633 470.167 399.027 471.284 399.026ZM474.595 399.029C473.309 401.039 469.725 401.043 466.591 399.038C463.457 397.033 461.959 393.778 463.245 391.768C464.531 389.758 468.114 389.754 471.248 391.759C474.383 393.764 475.881 397.019 474.595 399.029Z" fill="white"/>
<defs>
<clipPath id="clip0_2:411">
<rect width="367" height="254" fill="white" transform="translate(73 90)"/>
</clipPath>
</defs>
</svg>
